X:1
T:I Have a Friend Who Loveth Me
T:I Have a Friend Who Loveth Me
T:Nils Frykman
T:Nils Frykman, 1895, tr. E. H. J. 
T:Public Domain Courtesy of the Cyber Hymnal™
C:Nils Frykman
Z:Public Domain
Z:Courtesy of the Cyber Hymnal™
%%score ( 1 2 ) ( 3 4 )
L:1/8
Q:1/4=95
M:3/4
K:G
V:1 treble 
V:2 treble 
V:3 bass 
V:4 bass 
V:1
 [B,D][DB]>[CA] | [B,G]3 D [DF]>[CE] | [CE]2 z E [Dc]>[DB] | [CA]3 [B,G] [DF]>[CE] | %4
w: 1.~I have a|friend who lov- eth|me, He gave His|life on Cal- va-|
w: 2.~My Sav- ior’s|love so full and|free Doth light the|wea- ry way for|
w: 3.~I have a|friend, a might- y|friend, Up- on His|power I may de-|
w: 4.~O bro- ther,|join us in our|song! This friend to|you would fain be-|
 [B,D]2 z [B,D] [DB]>[CA] | [B,G]3 D [DF]>[CE] | [CE]2 z E [Dc]>[DB] | [DA]3 D [^CE][=CF] | %8
w: ry; Up- on the|cross my sins He|bore, And I am|saved for- ev- er-|
w: me; It fills with|joy each pass- ing|day And drives my|sor- rows all a-|
w: pend; He reign- eth|o- ver ev- ery|land, O’er val- ley,|hill, on sea and|
w: long; Tho’ far from|what you’d like to|be, His grace suf-|fi- cient is for|
 [B,G]2 z ||"^Refrain" [GB][Gd]>[Gd] | [Gd]3 [Gd] [Ge]>[Gd] | [Gd]2 z [GB] [Ac]>[Ac] | %12
w: more.||||
w: way.|Oh, hal- le-|lu- jah, He’s my|friend, He guides me|
w: strand.||||
w: thee.||||
 [Ac]3 [Ac] [Bd]>[Ac] | [GB]2 z [B,D] [DB]>[CA] | [B,G]3 D [DF]>[CE] | [CE]2 z E [Dc]>[DB] | %16
w: ||||
w: to the jour- ney’s|end, He walks be-|side me all the|way, And gives to|
w: ||||
w: ||||
 [DA]3 D [^CE][=CF] | [B,G]2 z |] %18
w: ||
w: me a crown some|day.|
w: ||
w: ||
V:2
 x3 | x3 D x2 | x3 E x2 | x6 | x6 | x3 D x2 | x3 E x2 | x3 D x2 | x3 || x3 | x6 | x6 | x6 | x6 | %14
 x3 D x2 | x3 E x2 | x3 D x2 | x3 |] %18
V:3
 [G,,G,][G,,G,]>[G,,G,] | [G,,G,]3 [B,,G,] [C,G,]>[C,G,] | [C,G,]2 z [C,G,] [D,F,]>[D,F,] | %3
 [D,F,]3 [D,G,] [D,A,]>[D,F,] | [G,,G,]2 z G, G,>G, | G,3 [B,,G,] [C,G,]>[C,G,] | %6
 [C,G,]2 z [C,G,] [D,F,]>[D,G,] | [D,F,]3 [D,F,] [D,G,][D,A,] | [G,,G,]2 z || G,[G,B,]>[G,B,] | %10
 [G,B,]3 [G,B,] [G,C]>[G,B,] | [G,B,]2 z [G,D] [D,D]>[D,D] | [D,D]3 [D,D] [D,D]>[D,D] | %13
 [G,D]2 z G, G,>G, | G,3 [B,,G,] [C,G,]>[C,G,] | [C,G,]2 z [C,G,] [D,F,]>[D,G,] | %16
 [D,F,]3 [D,F,] [D,G,][D,A,] | [G,,G,]2 z |] %18
V:4
 x3 | x6 | x6 | x6 | x3 G, G,>G, | G,3 x3 | x6 | x6 | x3 || G, x2 | x6 | x6 | x6 | x3 G, G,>G, | %14
 G,3 x3 | x6 | x6 | x3 |] %18

